icons/circle/48/deepin-media-player.svg

<svg viewBox="0 0 48 48" xmlns="http://www.w3.org/2000/svg" xmlns:xlink="http://www.w3.org/1999/xlink">
 <defs>
  <linearGradient id="linear0" x2="13.547" gradientTransform="matrix(0 -3.5433 3.5433 0 -3.5078e-7 48)" gradientUnits="userSpaceOnUse">
   <stop style="stop-color:#008ef3" offset="0"/>
   <stop style="stop-color:#00d4ff" offset="1"/>
  </linearGradient>
  <linearGradient id="linearGradient3082" x1="6.803" x2="6.795" y1="12.76" y2=".766" gradientTransform="scale(3.5433)" gradientUnits="userSpaceOnUse" xlink:href="#linear0"/>
  <linearGradient id="linearGradient3086" x2="13.547" gradientTransform="matrix(0 -3.5433 3.5433 0 -3.5078e-7 48)" gradientUnits="userSpaceOnUse" xlink:href="#linear0"/>
 </defs>
 <path d="m36.31 5c5.859 4.062 9.688 10.831 9.688 18.5 0 12.426-10.07 22.5-22.5 22.5-7.669 0-14.438-3.828-18.5-9.688 1.037 1.822 2.306 3.499 3.781 4.969 4.085 3.712 9.514 5.969 15.469 5.969 12.703 0 23-10.298 23-23 0-5.954-2.256-11.384-5.969-15.469-1.469-1.475-3.147-2.744-4.969-3.781zm4.969 3.781c3.854 4.113 6.219 9.637 6.219 15.719 0 12.703-10.297 23-23 23-6.081 0-11.606-2.364-15.719-6.219 4.16 4.144 9.883 6.719 16.219 6.719 12.703 0 23-10.298 23-23 0-6.335-2.575-12.06-6.719-16.219z" style="opacity:.05"/>
 <path d="m41.28 8.781c3.712 4.085 5.969 9.514 5.969 15.469 0 12.703-10.297 23-23 23-5.954 0-11.384-2.256-15.469-5.969 4.113 3.854 9.637 6.219 15.719 6.219 12.703 0 23-10.298 23-23 0-6.081-2.364-11.606-6.219-15.719z" style="opacity:.1"/>
 <path d="m31.25 2.375c8.615 3.154 14.75 11.417 14.75 21.13 0 12.426-10.07 22.5-22.5 22.5-9.708 0-17.971-6.135-21.12-14.75a23 23 0 0 0 44.875-7 23 23 0 0 0-16-21.875z" style="opacity:.2"/>
 <path d="m24 1c-12.703 0-23 10.297-23 23s10.297 23 23 23 23-10.297 23-23-10.297-23-23-23z" style="fill:url(#linearGradient3086)"/>
 <path d="m25 10h4e-3c8.281 0 14.996 6.715 14.996 15v4e-3c0 8.281-6.715 14.996-14.996 14.996h-4e-3c-8.285 0-15-6.715-15-14.996v-4e-3c0-8.285 6.715-15 15-15" style="fill-rule:evenodd;opacity:.1"/>
 <path d="m24 9h4e-3c8.281 0 14.996 6.715 14.996 15v4e-3c0 8.281-6.715 14.996-14.996 14.996h-4e-3c-8.285 0-15-6.715-15-14.996v-4e-3c0-8.285 6.715-15 15-15" style="fill-rule:evenodd;fill:#ededed"/>
 <path d="m19 14v20l15-10m-10-4c2.43 0.012 3.996 2.172 4 4 0 3-3 4-4 4v-2c3.355-0.336 2.258-4.871-1-4v6h-2v-6.438c0-0.547 1-1.563 3-1.563" style="fill:url(#linearGradient3082)"/>
 <path d="m40.03 7.531c3.712 4.084 5.969 9.514 5.969 15.469 0 12.703-10.297 23-23 23-5.954 0-11.384-2.256-15.469-5.969 4.178 4.291 10.01 6.969 16.469 6.969 12.703 0 23-10.298 23-23 0-6.462-2.677-12.291-6.969-16.469z" style="opacity:.1"/>
</svg>

<svg xmlns="http://www.w3.org/2000/svg" xmlns:xlink="http://www.w3.org/1999/xlink" viewBox="0 0 48 48">
 <defs>
  <linearGradient id="linear0" gradientUnits="userSpaceOnUse" x1="0" x2="13.547" gradientTransform="matrix(0,-3.543307,3.543307,0,-0.000000350784,48)">
   <stop style="stop-color:#008ef3;stop-opacity:1"/>
   <stop offset="1" style="stop-color:#00d4ff;stop-opacity:1"/>
  </linearGradient>
  <linearGradient xlink:href="#linear0" id="linearGradient3082" gradientUnits="userSpaceOnUse" gradientTransform="scale(3.543307,3.543307)" x1="6.803" y1="12.76" x2="6.795" y2="0.766"/>
  <linearGradient xlink:href="#linear0" id="linearGradient3086" gradientUnits="userSpaceOnUse" gradientTransform="matrix(0,-3.543307,3.543307,0,-3.50784e-7,48)" x1="0" x2="13.547"/>
 </defs>
 <g>
  <path d="m 36.31 5 c 5.859 4.062 9.688 10.831 9.688 18.5 c 0 12.426 -10.07 22.5 -22.5 22.5 c -7.669 0 -14.438 -3.828 -18.5 -9.688 c 1.037 1.822 2.306 3.499 3.781 4.969 c 4.085 3.712 9.514 5.969 15.469 5.969 c 12.703 0 23 -10.298 23 -23 c 0 -5.954 -2.256 -11.384 -5.969 -15.469 c -1.469 -1.475 -3.147 -2.744 -4.969 -3.781 z m 4.969 3.781 c 3.854 4.113 6.219 9.637 6.219 15.719 c 0 12.703 -10.297 23 -23 23 c -6.081 0 -11.606 -2.364 -15.719 -6.219 c 4.16 4.144 9.883 6.719 16.219 6.719 c 12.703 0 23 -10.298 23 -23 c 0 -6.335 -2.575 -12.06 -6.719 -16.219 z" style="opacity:0.05"/>
  <path d="m 41.28 8.781 c 3.712 4.085 5.969 9.514 5.969 15.469 c 0 12.703 -10.297 23 -23 23 c -5.954 0 -11.384 -2.256 -15.469 -5.969 c 4.113 3.854 9.637 6.219 15.719 6.219 c 12.703 0 23 -10.298 23 -23 c 0 -6.081 -2.364 -11.606 -6.219 -15.719 z" style="opacity:0.1"/>
  <path d="m 31.25 2.375 c 8.615 3.154 14.75 11.417 14.75 21.13 c 0 12.426 -10.07 22.5 -22.5 22.5 c -9.708 0 -17.971 -6.135 -21.12 -14.75 a 23 23 0 0 0 44.875 -7 a 23 23 0 0 0 -16 -21.875 z" style="opacity:0.2"/>
 </g>
 <path d="M 24 1 C 11.297 1 1 11.297 1 24 C 1 36.703 11.297 47 24 47 C 36.703 47 47 36.703 47 24 C 47 11.297 36.703 1 24 1 z " style="fill:url(#linearGradient3086);stroke:none"/>
 <path d="m 25,10 0.004,0 C 33.285,10 40,16.715 40,25 l 0,0.004 C 40,33.285 33.285,40 25.004,40 L 25,40 C 16.715,40 10,33.285 10,25.004 L 10,25 c 0,-8.285 6.715,-15 15,-15 m 0,0" style="fill:#000;opacity:0.1;fill-opacity:1;stroke:none;fill-rule:evenodd"/>
 <g>
  <path d="m 24,9 0.004,0 C 32.285,9 39,15.715 39,24 l 0,0.004 C 39,32.285 32.285,39 24.004,39 L 24,39 C 15.715,39 9,32.285 9,24.004 L 9,24 C 9,15.715 15.715,9 24,9 m 0,0" style="fill:#ededed;fill-opacity:1;stroke:none;fill-rule:evenodd"/>
  <path d="M 19,14 19,34 34,24 M 24,20 c 2.43,0.012 3.996,2.172 4,4 0,3 -3,4 -4,4 l 0,-2 c 3.355,-0.336 2.258,-4.871 -1,-4 l 0,6 -2,0 0,-6.438 c 0,-0.547 1,-1.563 3,-1.563 m 0,0" style="fill:url(#linearGradient3082);stroke:none;fill-rule:nonzero"/>
 </g>
 <g>
  <path d="m 40.03 7.531 c 3.712 4.084 5.969 9.514 5.969 15.469 0 12.703 -10.297 23 -23 23 c -5.954 0 -11.384 -2.256 -15.469 -5.969 4.178 4.291 10.01 6.969 16.469 6.969 c 12.703 0 23 -10.298 23 -23 0 -6.462 -2.677 -12.291 -6.969 -16.469 z" style="opacity:0.1"/>
 </g>
</svg>
